packages/core/src/svgs/networks/mono/mode.svg

<svg width="24" height="24" viewBox="0 0 24 24" fill="none" xmlns="http://www.w3.org/2000/svg">
<path d="M21.9824 20.8477H18.0809V12.028L19.6429 6.99716L18.5348 6.60315L13.4759 20.8477H10.5066L5.44415 6.60315L4.33949 6.99716L5.9015 12.028V20.8512H2V3.14844H7.80826L11.4107 13.2803V16.2566H12.5893V13.2803L16.1918 3.14844H22V20.8477H21.9824Z" fill="white"/>
</svg>

<svg xmlns="http://www.w3.org/2000/svg" width="24" height="24" fill="none" viewBox="0 0 24 24">
    <path fill="#fff" d="M21.982 20.848h-3.901v-8.82l1.562-5.03-1.108-.395-5.06 14.245h-2.968L5.444 6.603l-1.105.394 1.563 5.031v8.823H2V3.148h5.808l3.603 10.132v2.977h1.178V13.28l3.603-10.132H22v17.7z"/>
</svg>
